packages/ui-icons/src/Basic/32/Bonus_32.svg

<svg xmlns="http://www.w3.org/2000/svg" viewBox="0 0 40 40"><path d="M6 24h2v12h24V24h2V14h-4.54A6 6 0 1 0 20 6.69 6 6 0 1 0 10.54 14H6Zm4 0h9v10h-9Zm20 10h-9V24h9ZM25 6a4 4 0 0 1 0 8h-4v-4a4 4 0 0 1 4-4Zm-14 4a4 4 0 0 1 8 0v4h-4a4 4 0 0 1-4-4Zm-3 6h24v6H8Z"/></svg>

<svg id="Ready" xmlns="http://www.w3.org/2000/svg" viewBox="0 0 40 40"><title>Megaicons_work_32_1.8_cp</title><path d="M6,24H8V36H32V24h2V14H29.46A6,6,0,1,0,20,6.69,6,6,0,1,0,10.54,14H6Zm4,0h9V34H10ZM30,34H21V24h9ZM25,6a4,4,0,0,1,0,8H21V10A4,4,0,0,1,25,6ZM11,10a4,4,0,0,1,8,0v4H15A4,4,0,0,1,11,10ZM8,16H32v6H8Z"/></svg>
